assets/Eye in speech bubble/Flat/eye_in_speech_bubble_flat.svg

<svg width="32" height="32" viewBox="0 0 32 32" fill="none" xmlns="http://www.w3.org/2000/svg">
<path d="M2.48449 16.2372C4.29999 13.3669 8.67411 8 16 8C23.3259 8 27.7 13.3669 29.5155 16.2372C30.2039 17.3256 30.2039 18.6744 29.5155 19.7628C28.6318 21.16 27.1417 23.1489 25 24.8222V29.5017C25 29.8757 24.6046 30.1173 24.2719 29.9467L19.5894 27.5458C18.4826 27.8344 17.2868 28 16 28C8.67411 28 4.29999 22.6331 2.48449 19.7628C1.79608 18.6744 1.79608 17.3256 2.48449 16.2372Z" fill="#321B41"/>
<path d="M16 25C19.866 25 23 21.866 23 18C23 14.134 19.866 11 16 11C12.134 11 9 14.134 9 18C9 21.866 12.134 25 16 25ZM16 22C13.7909 22 12 20.2091 12 18C12 15.7909 13.7909 14 16 14C18.2091 14 20 15.7909 20 18C20 20.2091 18.2091 22 16 22Z" fill="white"/>
</svg>

<svg xmlns="http://www.w3.org/2000/svg" width="32" height="32" fill="none"><path fill="#321B41" d="M2.484 16.237C4.3 13.367 8.674 8 16 8s11.7 5.367 13.515 8.237a3.268 3.268 0 0 1 0 3.526c-.883 1.397-2.373 3.386-4.515 5.06v4.679a.5.5 0 0 1-.728.445l-4.683-2.401A14.17 14.17 0 0 1 16 28c-7.326 0-11.7-5.367-13.516-8.237a3.267 3.267 0 0 1 0-3.526Z"/><path fill="#fff" d="M16 25a7 7 0 1 0 0-14 7 7 0 0 0 0 14Zm0-3a4 4 0 1 1 0-8 4 4 0 0 1 0 8Z"/></svg>
